luts/amethyst.cube
LUT_1D_SIZE 9
0.090 0.024 0.231
0.141 0.047 0.325
0.212 0.110 0.416
0.259 0.153 0.463
0.322 0.212 0.529
0.424 0.286 0.667
0.604 0.361 0.776
0.788 0.561 0.953
0.788 0.561 0.953
