luts/copper.cube
LUT_1D_SIZE 9
0.239 0.094 0.043
0.298 0.125 0.063
0.373 0.169 0.094
0.427 0.204 0.125
0.475 0.235 0.157
0.604 0.278 0.173
0.706 0.408 0.302
0.890 0.510 0.424
0.890 0.510 0.424
