luts/diamond.cube
LUT_1D_SIZE 9
0.004 0.235 0.278
0.016 0.318 0.373
0.027 0.396 0.471
0.047 0.471 0.553
0.114 0.588 0.604
0.173 0.729 0.659
0.431 0.925 0.824
0.796 1.000 0.961
0.796 1.000 0.961
