luts/diamond_darker.cube
LUT_1D_SIZE 9
0.016 0.251 0.243
0.012 0.275 0.259
0.035 0.318 0.282
0.024 0.365 0.357
0.008 0.455 0.447
0.016 0.506 0.522
0.039 0.612 0.631
0.082 0.702 0.631
0.082 0.702 0.631
