luts/emerald.cube
LUT_1D_SIZE 9
0.008 0.239 0.055
0.012 0.314 0.075
0.035 0.388 0.106
0.055 0.447 0.133
0.063 0.482 0.141
0.067 0.627 0.212
0.055 0.780 0.329
0.510 0.965 0.678
0.510 0.965 0.678
