luts/gold.cube
LUT_1D_SIZE 9
0.341 0.137 0.000
0.443 0.176 0.000
0.502 0.208 0.012
0.627 0.271 0.039
0.694 0.404 0.071
0.871 0.694 0.176
0.925 0.851 0.247
1.000 0.992 0.565
1.000 0.992 0.565
