luts/gold_darker.cube
LUT_1D_SIZE 9
0.243 0.106 0.012
0.341 0.137 0.000
0.443 0.176 0.000
0.502 0.208 0.012
0.537 0.278 0.047
0.639 0.373 0.078
0.729 0.514 0.153
0.761 0.612 0.165
0.761 0.612 0.165
