luts/iron_darker.cube
LUT_1D_SIZE 9
0.114 0.157 0.157
0.169 0.204 0.204
0.192 0.231 0.231
0.239 0.286 0.286
0.341 0.388 0.388
0.435 0.463 0.463
0.541 0.573 0.569
0.635 0.690 0.702
0.635 0.690 0.702
