luts/iron.cube
LUT_1D_SIZE 9
0.275 0.318 0.318
0.341 0.388 0.388
0.396 0.439 0.439
0.443 0.490 0.490
0.482 0.537 0.537
0.616 0.667 0.667
0.749 0.788 0.784
0.773 0.824 0.831
0.773 0.824 0.831
