luts/lapis.cube
LUT_1D_SIZE 9
0.002 0.086 0.212
0.035 0.118 0.271
0.047 0.157 0.353
0.067 0.180 0.388
0.071 0.200 0.396
0.129 0.286 0.482
0.110 0.302 0.612
0.255 0.431 0.592
0.255 0.431 0.592
