luts/netherite.cube
LUT_1D_SIZE 9
0.035 0.027 0.027
0.063 0.047 0.047
0.102 0.086 0.086
0.137 0.118 0.118
0.184 0.153 0.153
0.192 0.180 0.192
0.267 0.227 0.231
0.353 0.341 0.353
0.353 0.341 0.353
