luts/netherite_darker.cube
LUT_1D_SIZE 9
0.043 0.035 0.035
0.078 0.059 0.059
0.114 0.075 0.075
0.122 0.090 0.090
0.141 0.102 0.102
0.157 0.114 0.114
0.157 0.141 0.145
0.180 0.157 0.161
0.180 0.157 0.161
