luts/quartz.cube
LUT_1D_SIZE 9
0.165 0.157 0.133
0.271 0.263 0.235
0.396 0.380 0.337
0.565 0.557 0.502
0.714 0.678 0.588
0.890 0.859 0.769
0.965 0.918 0.875
0.949 0.937 0.929
0.949 0.937 0.929
