luts/redstone.cube
LUT_1D_SIZE 9
0.114 0.020 0.008
0.212 0.031 0.012
0.322 0.051 0.024
0.396 0.043 0.004
0.471 0.067 0.004
0.592 0.086 0.027
0.741 0.125 0.031
0.902 0.125 0.031
0.902 0.125 0.031
