luts/resin.cube
LUT_1D_SIZE 9
0.502 0.165 0.102
0.547 0.231 0.067
0.780 0.286 0.039
0.859 0.373 0.063
0.925 0.447 0.078
0.941 0.522 0.165
0.965 0.624 0.231
1.000 0.765 0.329
1.000 0.765 0.329
